lib/logo_updates/nrk-logo-nrk-jazz-title-below-on-light.svg

<svg width="120" height="104" viewBox="0 0 120 104" fill="none" xmlns="http://www.w3.org/2000/svg">
<path d="M0 43V1.00381H13.7802V43H0ZM32.5283 7.68773L40.4532 43H25.3721L15.9092 1.00381H24.3676C26.3072 0.978642 28.1892 1.66237 29.6607 2.92636C31.1347 4.13734 32.1473 5.81844 32.5283 7.68773ZM42.5233 43V1.00381H56.3035V43H42.5233ZM66.7116 16.9743C65.2267 16.9888 63.7656 16.6003 62.4839 15.8504C61.2193 15.1194 60.1688 14.0689 59.438 12.8041C58.6872 11.5222 58.2986 10.0607 58.3134 8.57511C58.2964 7.09861 58.6853 5.64583 59.438 4.3755C60.1766 3.12447 61.2259 2.08533 62.4839 1.35882C63.766 0.609758 65.2269 0.221301 66.7116 0.234844C68.1877 0.218947 69.6399 0.607751 70.9108 1.35882C72.1562 2.09169 73.1943 3.12996 73.9271 4.3755C74.6789 5.64618 75.0677 7.09873 75.0517 8.57511C75.0655 10.0605 74.6769 11.5218 73.9271 12.8041C73.202 14.0633 72.1627 15.113 70.9108 15.8504C69.6398 16.6029 68.1866 16.9918 66.7097 16.9743H66.7116ZM77.1807 43V1.00381H90.9621V43H77.1807ZM108.408 23.9538C108.447 23.9946 108.742 24.4776 109.295 25.403C109.848 26.3283 110.567 27.5114 111.454 28.952C112.341 30.392 113.277 31.9199 114.262 33.536C115.247 35.1521 116.174 36.6803 117.043 38.1202C117.908 39.5602 118.894 41.1867 120 43H104.859C103.912 41.4621 103.055 40.0721 102.286 38.83C101.517 37.5878 100.7 36.2471 99.8334 34.8077C98.9653 33.3698 98.1071 31.9699 97.2587 30.6081C96.4103 29.2464 95.6813 28.0536 95.0714 27.0297C94.459 26.0051 94.0348 25.3149 93.7989 24.9594C93.2139 24.0771 92.8677 23.058 92.7944 22.0019C92.853 20.9883 93.1791 20.0084 93.7397 19.1619C93.9762 18.7676 94.41 18.0675 95.0409 17.062C95.6717 16.0564 96.411 14.8637 97.2587 13.4835C98.1064 12.1034 98.9647 10.6936 99.8334 9.25431C100.702 7.81501 101.519 6.46432 102.286 5.20247C103.056 3.94193 103.914 2.54205 104.859 1.00285H120L108.289 20.1082C107.926 20.6755 107.722 21.3292 107.697 22.0019C107.736 22.7081 107.983 23.3871 108.406 23.9538H108.408Z" fill="#0A2343"/>
<path d="M11.423 93.4405C11.434 94.1267 11.3142 94.8086 11.0698 95.4496C10.8486 96.0185 10.5071 96.5325 10.0688 96.9562C9.61366 97.3836 9.071 97.7063 8.47888 97.9017C7.79512 98.1271 7.07887 98.2369 6.35922 98.2267C5.88817 98.2267 5.44646 98.2069 5.03429 98.1675C4.62211 98.1281 4.20993 98.079 3.79776 98.0199C3.38558 97.9608 2.97364 97.8915 2.56147 97.812C2.14929 97.7326 1.72727 97.6444 1.29547 97.5472C0.863668 97.4487 0.4318 97.3403 0 97.2221L0.471036 102.54C1.0206 102.698 1.55065 102.845 2.06096 102.982C2.57127 103.121 3.0814 103.238 3.59171 103.338C4.11718 103.437 4.64814 103.506 5.18163 103.544C5.7312 103.583 6.33951 103.603 7.00684 103.604C8.3681 103.625 9.72578 103.456 11.0404 103.1C12.1126 102.808 13.1211 102.318 14.0139 101.654C14.8189 101.044 15.5073 100.294 16.0454 99.4379C16.5803 98.5794 16.9776 97.642 17.223 96.6599C17.4818 95.6264 17.6103 94.5642 17.6056 93.4986V61H11.423V93.4405Z" fill="#2B0B4F"/>
<path d="M52.4636 99.2312C52.0333 99.2707 51.5998 99.2054 51.2 99.0408C50.8002 98.8762 50.4458 98.6172 50.1671 98.2858C49.6213 97.339 49.3942 96.2407 49.5195 95.1541L49.6374 82.9819C49.6504 81.7059 49.4919 80.4339 49.1663 79.2003C48.8802 78.1182 48.4013 77.0969 47.753 76.1858C47.0977 75.2955 46.2657 74.5511 45.3094 73.9995C44.1981 73.3669 42.9968 72.9089 41.7472 72.6415C40.2191 72.3102 38.6588 72.1517 37.0955 72.1688C35.8553 72.1679 34.6162 72.2465 33.3859 72.4042C32.2236 72.5516 31.0727 72.7789 29.9413 73.0846C28.8921 73.3697 27.86 73.715 26.8501 74.1187L26.1433 79.1412C27.1247 78.7873 28.0571 78.4918 28.9403 78.2548C29.8235 78.0178 30.6774 77.8209 31.5018 77.664C32.3095 77.5093 33.1254 77.4012 33.9454 77.34C34.7488 77.2809 35.5436 77.251 36.33 77.2503C37.5307 77.2249 38.7291 77.3641 39.8923 77.664C40.7411 77.8771 41.5215 78.3046 42.1593 78.9058C42.7274 79.4899 43.1334 80.2131 43.3369 81.0034C43.588 81.9776 43.707 82.9813 43.6903 83.9874L43.6833 85.4695L36.8011 85.9373C34.4471 86.0034 32.128 86.5247 29.9708 87.4726C28.3569 88.1819 26.9634 89.3149 25.9373 90.7521C25.0667 92.0313 24.6048 93.5459 24.6126 95.095C24.6017 96.5487 24.9559 97.9818 25.6428 99.2618C26.3635 100.576 27.4474 101.653 28.7637 102.363C30.37 103.201 32.1651 103.609 33.9746 103.545C35.67 103.584 37.3577 103.303 38.9502 102.718C40.3269 102.178 41.5865 101.375 42.6598 100.355C43.0673 99.963 43.4538 99.5499 43.8177 99.117C43.932 99.7291 44.1478 100.318 44.4557 100.858C44.9809 101.762 45.7876 102.468 46.752 102.867C47.8182 103.297 48.9596 103.508 50.1084 103.488C50.4617 103.488 50.8052 103.477 51.1389 103.458C51.4666 103.438 51.7918 103.388 52.1104 103.309C52.4245 103.231 52.708 103.163 52.9641 103.103C53.1948 103.051 53.4212 102.982 53.6412 102.896L54.289 98.9378C53.9639 99.0494 53.6286 99.1285 53.288 99.1741C53.0147 99.21 52.7393 99.2291 52.4636 99.2312ZM42.6598 96.5722C42.0214 97.0788 41.3303 97.515 40.5988 97.8731C39.8699 98.2284 39.0981 98.4866 38.3026 98.6413C37.4779 98.8004 36.6398 98.8792 35.8 98.8767C34.8404 98.9046 33.886 98.7232 33.0031 98.3449C32.2845 98.0325 31.6787 97.507 31.2663 96.8391C30.8583 96.1308 30.6544 95.3228 30.6774 94.5051C30.6205 93.5197 30.8896 92.5431 31.4428 91.727C32.0841 90.9765 32.9528 90.4576 33.9159 90.2498C35.4202 89.8948 36.9638 89.7363 38.5086 89.7781H43.6646L43.6383 95.6425C43.3391 95.9795 43.0117 96.2912 42.6598 96.5722Z" fill="#2B0B4F"/>
<path d="M82.1391 77.0138L81.4326 72.8176H58.7042L57.9974 77.5447H75.0968L57.4687 98.9346L58.1752 102.953H82.199L82.8466 98.1665H64.8495L82.1391 77.0138Z" fill="#2B0B4F"/>
<path d="M94.525 98.1675L111.817 77.015L111.109 72.8187H88.3807L87.6739 77.5458H104.772L87.1442 98.9357L87.8507 102.954H111.875L112.522 98.1675H94.525Z" fill="#2B0B4F"/>
</svg>

<svg xmlns="http://www.w3.org/2000/svg" viewBox="0 0 120 104"><path fill="#0A2343" d="M0 43V1.004h13.78V43H0ZM32.528 7.688 40.453 43h-15.08L15.908 1.004h8.459a7.965 7.965 0 0 1 5.293 1.922 8.31 8.31 0 0 1 2.867 4.762ZM42.523 43V1.004h13.78V43h-13.78Zm24.189-26.026a8.213 8.213 0 0 1-4.228-1.124 8.336 8.336 0 0 1-3.046-3.046 8.206 8.206 0 0 1-1.125-4.229 8.056 8.056 0 0 1 1.125-4.2 8.437 8.437 0 0 1 3.046-3.016A8.232 8.232 0 0 1 66.712.235a8.083 8.083 0 0 1 4.199 1.124 8.503 8.503 0 0 1 3.016 3.016 8.075 8.075 0 0 1 1.125 4.2 8.226 8.226 0 0 1-1.125 4.23 8.4 8.4 0 0 1-3.016 3.045 8.059 8.059 0 0 1-4.201 1.124h.002ZM77.18 43V1.004h13.781V43H77.181Zm31.227-19.046c.039.04.334.524.887 1.449.553.925 1.272 2.108 2.159 3.549a1143.28 1143.28 0 0 1 5.589 9.168A854.89 854.89 0 0 0 120 43h-15.141c-.947-1.538-1.804-2.928-2.573-4.17a382.214 382.214 0 0 1-2.453-4.022 351.934 351.934 0 0 0-2.574-4.2 213.445 213.445 0 0 1-2.188-3.578 62.753 62.753 0 0 0-1.272-2.07 6.119 6.119 0 0 1-1.005-2.958 5.744 5.744 0 0 1 .946-2.84c.236-.394.67-1.095 1.3-2.1.632-1.006 1.371-2.198 2.219-3.579.847-1.38 1.706-2.79 2.574-4.229.869-1.439 1.686-2.79 2.453-4.052.77-1.26 1.628-2.66 2.573-4.2H120l-11.711 19.106a3.773 3.773 0 0 0-.592 1.894c.039.706.286 1.385.709 1.952h.002Z"/><path fill="#2B0B4F" d="M11.423 93.44a5.397 5.397 0 0 1-.353 2.01 4.225 4.225 0 0 1-1.001 1.506c-.455.428-.998.75-1.59.946-.684.225-1.4.335-2.12.325-.47 0-.913-.02-1.325-.06a26.428 26.428 0 0 1-2.473-.355 41.59 41.59 0 0 1-1.266-.265A31.124 31.124 0 0 1 0 97.222l.471 5.318c.55.158 1.08.305 1.59.442.51.139 1.02.256 1.53.356.526.099 1.057.168 1.59.206.55.039 1.159.059 1.826.06a14.57 14.57 0 0 0 4.033-.504 8.901 8.901 0 0 0 2.974-1.446 8.367 8.367 0 0 0 2.031-2.216 9.7 9.7 0 0 0 1.178-2.778c.259-1.034.387-2.096.383-3.161V61h-6.183v32.44ZM52.464 99.231a2.676 2.676 0 0 1-2.297-.945 5.101 5.101 0 0 1-.648-3.132l.118-12.172a14.25 14.25 0 0 0-.47-3.782 9.3 9.3 0 0 0-1.414-3.014 7.994 7.994 0 0 0-2.444-2.187 12.479 12.479 0 0 0-3.562-1.358 20.876 20.876 0 0 0-4.651-.472c-1.24-.001-2.48.078-3.71.235a25.509 25.509 0 0 0-3.445.68 28.37 28.37 0 0 0-3.09 1.035l-.708 5.022a35.07 35.07 0 0 1 5.359-1.477 21.495 21.495 0 0 1 2.443-.324c.804-.06 1.599-.089 2.385-.09 1.2-.025 2.4.114 3.562.414.85.213 1.63.64 2.267 1.242a4.684 4.684 0 0 1 1.178 2.097c.251.975.37 1.978.353 2.984l-.007 1.483-6.882.467a18.251 18.251 0 0 0-6.83 1.536 9.804 9.804 0 0 0-4.034 3.28 7.65 7.65 0 0 0-1.324 4.342 8.675 8.675 0 0 0 1.03 4.167 7.765 7.765 0 0 0 3.12 3.101 10.466 10.466 0 0 0 5.212 1.182 13.528 13.528 0 0 0 4.975-.827 11.462 11.462 0 0 0 3.71-2.363c.407-.392.794-.805 1.158-1.238.114.612.33 1.201.638 1.741a4.762 4.762 0 0 0 2.296 2.009 8.574 8.574 0 0 0 3.356.621c.354 0 .697-.011 1.03-.03.329-.02.654-.07.972-.149.315-.078.598-.146.854-.206.23-.052.457-.121.677-.207l.648-3.958c-.325.111-.66.19-1.001.236a6.724 6.724 0 0 1-.824.057Zm-9.804-2.659a11.33 11.33 0 0 1-2.061 1.301c-.73.355-1.5.614-2.296.768-.825.16-1.663.238-2.503.236a6.613 6.613 0 0 1-2.797-.532 3.842 3.842 0 0 1-1.737-1.506 4.427 4.427 0 0 1-.589-2.334 4.49 4.49 0 0 1 .766-2.778 4.502 4.502 0 0 1 2.473-1.477 17.888 17.888 0 0 1 4.593-.472h5.156l-.027 5.864c-.299.338-.626.65-.978.93ZM82.14 77.014l-.707-4.196H58.704l-.707 4.727h17.1l-17.628 21.39.706 4.018H82.2l.648-4.787H64.85l17.29-21.152ZM94.525 98.168l17.292-21.153-.708-4.196H88.381l-.707 4.727h17.098l-17.628 21.39.707 4.018h24.024l.647-4.786H94.525Z"/></svg>
